X:35
T:Jigs simple chords 36
M:3/4
L:1/8
K:Bb
Bc [dB,DF]B FD | FB [dB,DF]B FD | FE [DB,DF]F Bd | cB [AE,G,B,]G ^FG2 |A [aF,A,CE]A Aa |
Aa [g4F,4A,4C4E4] | ag [fF,A,CE]=e f_e | de2< [d2F,2A,2C2E2]d | Bc [dB,DF]B FD |
FB [dB,DF]B FD | FE [DB,DF]F Bd | cB [AE,G,B,]G ^FG2 |A [aF,A,CE]A Aa |
Aa [g4F,4A,4C4E4] | AG [FF,A,CE]A ce | cA2< [B2B,2D2F2]B | FE [DB,DF]F AB |
FB2< [d2B,2D2F2]d | ^c=c [BB,DF]A Bg | fg [f5B,5D5F5] |b [a4F,4A,4C4E4] |
_a=a [g4F,4A,4C4E4] | ag [fF,A,CE]=e f_e | de [d4B,4D4F4] | FE [DB,DF]F AB |
FB2< [d2B,2D2F2]d | ^c=c [BB,DF]A Bg | fg [f5B,5D5F5] |b [a4F,4A,4C4E4] |
_a=a [g4F,4A,4C4E4] | AG [FF,A,CE]A ce | cA2< [B2B,2D2F2]B |


